Gruvbox-Plus-Dark/actions/16/snap-nodes-midpoint.svg

<svg xmlns="http://www.w3.org/2000/svg" width="16" height="16" viewBox="0 0 16 16">
 <defs>
  <style id="current-color-scheme" type="text/css">
   .ColorScheme-Text { color:#ebdbb2; } .ColorScheme-Highlight { color:#458588; }
  </style>
 </defs>
 <path style="fill:currentColor" class="ColorScheme-Text" d="M 12.613281 0.20507812 A 0.50005 0.50005 0 0 0 12.142578 0.77929688 L 12.425781 2.8652344 L 11.388672 3.9023438 L 11.085938 1.671875 A 0.50005 0.50005 0 0 0 10.564453 1.2324219 A 0.50005 0.50005 0 0 0 10.095703 1.8066406 L 10.5 4.7910156 L 8.7910156 6.5 L 6.5 6.5 L 6.5 7.90625 L 5.2695312 8.2578125 L 5.0097656 6.3359375 A 0.50005 0.50005 0 0 0 4.4882812 5.8964844 A 0.50005 0.50005 0 0 0 4.0175781 6.46875 L 4.2988281 8.5351562 L 2.6113281 9.0175781 L 2.3710938 7.2519531 A 0.50005 0.50005 0 0 0 1.8496094 6.8125 A 0.50005 0.50005 0 0 0 1.3789062 7.3867188 L 1.6386719 9.296875 L 0.86328125 9.5175781 A 0.50005 0.50005 0 1 0 1.1367188 10.478516 L 1.7734375 10.296875 L 2.1601562 13.130859 L 0.64648438 14.644531 A 0.50005 0.50005 0 1 0 1.3535156 15.351562 L 2.328125 14.376953 L 2.4257812 15.089844 A 0.50005 0.50005 0 1 0 3.4160156 14.957031 L 3.2167969 13.488281 L 4.7617188 11.943359 L 5.0644531 14.173828 A 0.50005 0.50005 0 1 0 6.0546875 14.039062 L 5.6503906 11.054688 L 7.2050781 9.5 L 9.5 9.5 L 9.5 8.0898438 L 10.894531 7.6914062 L 11.140625 9.5097656 A 0.50052 0.50052 0 0 0 12.132812 9.3769531 L 11.865234 7.4140625 L 13 7.0898438 L 13.189453 8.484375 A 0.50006301 0.50006301 0 1 0 14.179688 8.3496094 L 13.970703 6.8125 L 15.136719 6.4785156 A 0.50005 0.50005 0 0 0 14.996094 5.4960938 A 0.50005 0.50005 0 0 0 14.863281 5.5175781 L 13.835938 5.8105469 L 13.484375 3.2207031 L 15.353516 1.3515625 A 0.50005 0.50005 0 0 0 14.990234 0.49414062 A 0.50005 0.50005 0 0 0 14.646484 0.64453125 L 13.314453 1.9765625 L 13.134766 0.64453125 A 0.50005 0.50005 0 0 0 12.613281 0.20507812 z M 12.595703 4.109375 L 12.863281 6.0898438 L 11.730469 6.4121094 L 11.558594 5.1464844 L 12.595703 4.109375 z M 10.669922 6.0351562 L 10.757812 6.6914062 L 9.7167969 6.9882812 L 10.669922 6.0351562 z M 6.2832031 9.0078125 L 5.4804688 9.8105469 L 5.40625 9.2578125 L 6.2832031 9.0078125 z M 4.4335938 9.5371094 L 4.5917969 10.699219 L 3.0488281 12.242188 L 2.7460938 10.017578 L 4.4335938 9.5371094 z"/>
</svg>

<svg width="16" height="16" version="1.1" viewBox="0 0 16 16" xmlns="http://www.w3.org/2000/svg">
  <defs>
    <style type="text/css">.ColorScheme-Text { color:#ebdbb2; } .ColorScheme-Highlight { color:#458588; }</style>
  </defs>
  <path class="ColorScheme-Text" d="m12.61 0.2051a0.5 0.5 0 0 0-0.4707 0.5742l0.2832 2.086-1.037 1.037-0.3027-2.23a0.5 0.5 0 0 0-0.5215-0.4395 0.5 0.5 0 0 0-0.4688 0.5742l0.4043 2.984-1.209 1.209h-3.291v2.049l-0.7305 0.209-0.2598-1.922a0.5 0.5 0 0 0-0.5215-0.4395 0.5 0.5 0 0 0-0.4707 0.5723l0.2812 2.066-1.688 0.4824-0.2402-1.766a0.5 0.5 0 0 0-0.5215-0.4395 0.5 0.5 0 0 0-0.4707 0.5742l0.2598 1.91-0.7754 0.2207a0.5 0.5 0 1 0 0.2734 0.9609l0.6367-0.1816 0.3867 2.834-1.514 1.514a0.5 0.5 0 1 0 0.707 0.707l0.9746-0.9746 0.09766 0.7129a0.5 0.5 0 1 0 0.9902-0.1328l-0.1992-1.469 1.545-1.545 0.3027 2.23a0.5 0.5 0 1 0 0.9902-0.1348l-0.4043-2.984 1.055-1.055h3.295v-2.053l0.8945-0.2559 0.2461 1.818a0.5005 0.5005 0 0 0 0.9922-0.1328l-0.2676-1.963 1.135-0.3242 0.1895 1.395a0.5001 0.5001 0 1 0 0.9902-0.1348l-0.209-1.537 1.166-0.334a0.5 0.5 0 0 0-0.1406-0.9824 0.5 0.5 0 0 0-0.1328 0.02148l-1.027 0.293-0.3516-2.59 1.869-1.869a0.5 0.5 0 0 0-0.3633-0.8574 0.5 0.5 0 0 0-0.3438 0.1504l-1.332 1.332-0.1797-1.332a0.5 0.5 0 0 0-0.5215-0.4395zm-0.01758 3.904 0.2676 1.98-1.133 0.3223-0.1719-1.266 1.037-1.037zm-1.926 1.926 0.08789 0.6562-0.7578 0.2168v-0.2031l0.6699-0.6699zm-4.67 3.053v0.2031l-0.5195 0.5195-0.07422-0.5527 0.5938-0.1699zm-1.566 0.4492 0.1582 1.162-1.543 1.543-0.3027-2.225 1.688-0.4805z" fill="currentColor"/>
</svg>
